static/images/uploads/couple.svg

<?xml version="1.0" encoding="UTF-8"?>
<svg width="26px" height="29px" viewBox="0 0 26 29" version="1.1" xmlns="http://www.w3.org/2000/svg" xmlns:xlink="http://www.w3.org/1999/xlink">
    <!-- Generator: Sketch 50.2 (55047) - http://www.bohemiancoding.com/sketch -->
    <title>Group</title>
    <desc>Created with Sketch.</desc>
    <defs>
        <polygon id="path-1" points="0.0956956199 0.184259014 8.07784528 0.184259014 8.07784528 8.1735409 0.0956956199 8.1735409"></polygon>
        <polygon id="path-3" points="0.331925126 0.184259014 8.31407478 0.184259014 8.31407478 8.1735409 0.331925126 8.1735409"></polygon>
        <polygon id="path-5" points="0.211649392 0.236229506 11.6465871 0.236229506 11.6465871 19.3708195 0.211649392 19.3708195"></polygon>
    </defs>
    <g id="-" stroke="none" stroke-width="1" fill="none" fill-rule="evenodd">
        <g id="Parent-Private-Charters" transform="translate(-708.000000, -1927.000000)">
            <g id="Group-24" transform="translate(0.000000, 1620.000000)">
                <g id="Group-4" transform="translate(544.000000, 307.000000)">
                    <g id="Group-19">
                        <g id="Group" transform="translate(164.000000, 0.000000)">
                            <g id="Group-3" transform="translate(1.889836, 0.288436)">
                                <mask id="mask-2" fill="white">
                                    <use xlink:href="#path-1"></use>
                                </mask>
                                <g id="Clip-2"></g>
                                <path d="M3.44895078,1.46462294 C3.63793439,1.41737703 3.87416389,1.41737703 4.0631475,1.41737703 C4.58285241,1.41737703 5.10255732,1.55911474 5.57501633,1.84259014 C6.18921305,2.22055735 6.66167206,2.88199997 6.80340976,3.59068849 C7.13413107,5.10255732 6.18921305,6.56718026 4.67734421,6.94514747 C3.16547538,7.27586878 1.70085244,6.33095075 1.32288523,4.81908192 C0.992163924,3.30721308 1.93708195,1.84259014 3.44895078,1.46462294 M4.0631475,8.1735409 C4.3466229,8.1735409 4.63009831,8.126295 4.96081962,8.07904909 C7.08688517,7.60659008 8.4570163,5.43327863 7.98455729,3.30721308 C7.74832779,2.26780325 7.13413107,1.37013113 6.23645895,0.803180319 C5.33878683,0.236229506 4.2521311,0.0472459011 3.21272128,0.283475407 C1.08665573,0.755934418 -0.283475407,2.92924587 0.188983605,5.05531142 C0.614196715,6.94514747 2.26780325,8.1735409 4.0631475,8.1735409" id="Fill-1" fill="#413F47" mask="url(#mask-2)"></path>
                            </g>
                            <path d="M8.88222941,9.50138695 L3.07098357,9.50138695 C1.37013113,9.50138695 0,10.8715181 0,12.5723705 L0,21.4545999 C0,22.9192229 1.03940983,24.1476163 2.45678686,24.4310917 L2.45678686,28.0217802 C2.45678686,28.3525015 2.74026227,28.6359769 3.07098357,28.6359769 C3.40170488,28.6359769 3.68518029,28.3525015 3.68518029,28.0217802 L3.68518029,23.9113868 C3.68518029,23.5806655 3.40170488,23.2971901 3.07098357,23.2971901 C2.03157375,23.2971901 1.22839343,22.4467639 1.22839343,21.4545999 L1.22839343,12.5723705 C1.22839343,11.5329607 2.07881965,10.7297804 3.07098357,10.7297804 L8.88222941,10.7297804 C9.92163924,10.7297804 10.7248196,11.5802066 10.7248196,12.5723705 L10.7248196,21.4545999 C10.7248196,22.4940098 9.87439334,23.2971901 8.88222941,23.2971901 C8.55150811,23.2971901 8.2680327,23.5806655 8.2680327,23.9113868 L8.2680327,28.0217802 C8.2680327,28.3525015 8.55150811,28.6359769 8.88222941,28.6359769 C9.21295072,28.6359769 9.49642613,28.3525015 9.49642613,28.0217802 L9.49642613,24.4310917 C10.9138032,24.1476163 11.953213,22.9192229 11.953213,21.4545999 L11.953213,12.5723705 C11.9059671,10.8715181 10.535836,9.50138695 8.88222941,9.50138695" id="Fill-4" fill="#413F47"></path>
                            <g id="Group-8" transform="translate(15.591147, 0.288436)">
                                <mask id="mask-4" fill="white">
                                    <use xlink:href="#path-3"></use>
                                </mask>
                                <g id="Clip-7"></g>
                                <path d="M3.63793439,1.46462294 C3.82691799,1.41737703 4.0631475,1.41737703 4.2521311,1.41737703 C4.81908192,1.41737703 5.33878683,1.55911474 5.76399994,1.84259014 C6.37819665,2.22055735 6.85065567,2.88199997 6.99239337,3.59068849 C7.32311468,5.10255732 6.37819665,6.56718026 4.86632782,6.94514747 C3.35445898,7.27586878 1.88983605,6.33095075 1.51186884,4.81908192 C1.18114753,3.30721308 2.12606555,1.84259014 3.63793439,1.46462294 M4.299377,8.1735409 C4.58285241,8.1735409 4.86632782,8.126295 5.19704913,8.07904909 C7.32311468,7.60659008 8.69324581,5.43327863 8.2207868,3.30721308 C7.98455729,2.26780325 7.37036058,1.37013113 6.47268846,0.803180319 C5.57501633,0.236229506 4.48836061,0.0472459011 3.44895078,0.283475407 C1.32288523,0.755934418 -0.0472459011,2.92924587 0.42521311,5.05531142 C0.803180319,6.94514747 2.45678686,8.1735409 4.299377,8.1735409" id="Fill-6" fill="#413F47" mask="url(#mask-4)"></path>
                            </g>
                            <g id="Group-11" transform="translate(13.701311, 9.265157)">
                                <mask id="mask-6" fill="white">
                                    <use xlink:href="#path-5"></use>
                                </mask>
                                <g id="Clip-10"></g>
                                <path d="M11.6224917,18.5676391 L9.82714744,11.6697376 C10.9138032,11.3390163 11.6224917,10.2523605 11.6224917,8.74049171 L11.6224917,3.30721308 C11.6224917,1.60636064 10.2523605,0.236229506 8.55150811,0.236229506 L3.77967209,0.236229506 C2.07881965,0.236229506 0.708688517,1.60636064 0.708688517,3.30721308 L0.708688517,8.74049171 C0.708688517,10.2523605 1.37013113,11.3390163 2.45678686,11.6697376 L0.236229506,18.5676391 C0.141737703,18.8983605 0.330721308,19.2290818 0.614196715,19.3235736 C0.661442616,19.3235736 0.755934418,19.3708195 0.803180319,19.3708195 C1.03940983,19.3708195 1.27563933,19.2290818 1.37013113,18.9456064 L1.41737703,18.7566228 L3.82691799,11.3862622 C3.87416389,11.1972786 3.87416389,11.008295 3.73242619,10.8665573 C3.63793439,10.7248196 3.44895078,10.6303278 3.25996718,10.6303278 C2.07881965,10.6303278 1.93708195,9.44918023 1.93708195,8.78773761 L1.93708195,3.30721308 C1.93708195,2.26780325 2.78750817,1.46462294 3.77967209,1.46462294 L8.55150811,1.46462294 C9.59091793,1.46462294 10.3940983,2.31504916 10.3940983,3.30721308 L10.3940983,8.74049171 C10.3940983,10.3468523 9.54367203,10.5830819 9.07121302,10.5830819 C8.88222941,10.5830819 8.69324581,10.6775737 8.59875401,10.8193114 C8.50426221,10.9610491 8.4570163,11.1500327 8.50426221,11.3390163 L10.3940983,18.7566228 L10.4413442,18.8983605 C10.535836,19.2290818 10.8665573,19.4180654 11.1972786,19.3235736 C11.5279999,19.2290818 11.7169835,18.8983605 11.6224917,18.5676391" id="Fill-9" fill="#413F47" mask="url(#mask-6)"></path>
                            </g>
                        </g>
                    </g>
                </g>
            </g>
        </g>
    </g>
</svg>

<svg width="26" height="29" xmlns="http://www.w3.org/2000/svg" xmlns:xlink="http://www.w3.org/1999/xlink"><defs><path id="a" d="M.096.184h7.982v7.99H.096z"/><path id="c" d="M.332.184h7.982v7.99H.332z"/><path id="e" d="M.212.236h11.435v19.135H.212z"/></defs><g fill="none" fill-rule="evenodd"><g transform="translate(1.89 .288)"><mask id="b" fill="#fff"><use xlink:href="#a"/></mask><path d="M3.449 1.465c.189-.048.425-.048.614-.048.52 0 1.04.142 1.512.426A2.747 2.747 0 0 1 6.803 3.59c.331 1.512-.614 2.976-2.126 3.354-1.512.33-2.976-.614-3.354-2.126-.33-1.512.614-2.976 2.126-3.354m.614 6.709c.284 0 .567-.048.898-.095 2.126-.472 3.496-2.646 3.024-4.772A3.977 3.977 0 0 0 6.236.803a4 4 0 0 0-3.023-.52C1.087.756-.283 2.93.189 5.055a3.973 3.973 0 0 0 3.874 3.119" fill="#413F47" mask="url(#b)"/></g><path d="M8.882 9.501H3.071c-1.7 0-3.071 1.37-3.071 3.071v8.883a3.037 3.037 0 0 0 2.457 2.976v3.59c0 .332.283.615.614.615.33 0 .614-.283.614-.614v-4.11a.625.625 0 0 0-.614-.615c-1.04 0-1.843-.85-1.843-1.842v-8.883c0-1.039.85-1.842 1.843-1.842h5.811c1.04 0 1.843.85 1.843 1.842v8.883c0 1.039-.85 1.842-1.843 1.842a.625.625 0 0 0-.614.614v4.11c0 .332.284.615.614.615.331 0 .614-.283.614-.614v-3.59a3.037 3.037 0 0 0 2.457-2.977v-8.883c-.047-1.7-1.417-3.07-3.07-3.07" fill="#413F47"/><g transform="translate(15.591 .288)"><mask id="d" fill="#fff"><use xlink:href="#c"/></mask><path d="M3.638 1.465c.189-.048.425-.048.614-.048.567 0 1.087.142 1.512.426A2.747 2.747 0 0 1 6.992 3.59c.331 1.512-.614 2.976-2.126 3.354-1.512.33-2.976-.614-3.354-2.126-.33-1.512.614-2.976 2.126-3.354m.661 6.709c.284 0 .567-.048.898-.095 2.126-.472 3.496-2.646 3.024-4.772A3.977 3.977 0 0 0 6.473.803a4 4 0 0 0-3.024-.52C1.323.756-.047 2.93.425 5.055.803 6.945 2.457 8.174 4.3 8.174" fill="#413F47" mask="url(#d)"/></g><g transform="translate(13.701 9.265)"><mask id="f" fill="#fff"><use xlink:href="#e"/></mask><path d="M11.622 18.568L9.827 11.67c1.087-.331 1.795-1.418 1.795-2.93V3.307c0-1.7-1.37-3.07-3.07-3.07H3.78C2.079.236.709 1.606.709 3.306V8.74c0 1.512.661 2.599 1.748 2.93l-2.22 6.898a.62.62 0 0 0 .377.756c.047 0 .142.047.19.047a.594.594 0 0 0 .566-.425l.047-.19 2.41-7.37c.047-.189.047-.378-.095-.52a.581.581 0 0 0-.472-.236c-1.181 0-1.323-1.18-1.323-1.842v-5.48c0-1.04.85-1.843 1.843-1.843h4.772c1.039 0 1.842.85 1.842 1.842V8.74c0 1.607-.85 1.843-1.323 1.843a.581.581 0 0 0-.472.236c-.095.142-.142.331-.095.52l1.89 7.418.047.141c.095.331.426.52.756.426a.607.607 0 0 0 .425-.756" fill="#413F47" mask="url(#f)"/></g></g></svg>
